X:605
T:The burnt old man
R:Jig
O:Ireland
P:See also: The Campbells are coming
D:Seamus Creagh/Aidan Coffey
S:Arr. 1 Seamus Creagh/Aidan Coffey
B:O'Neill's 91
S:Arr. 2 O'Neill's 91
Z:Transcription, chords:Mike Long
M:6/8
L:1/8
K:D
"D"D2B AFD|~F3 F2E|DFB AFD|"A"~E3 EFE|\
"D"DFB AFD|DFA d2e|"D"fed "G"BdB|"A"AFD ~E3:|
|:"D"dcd def|ABA AFA|"Em"~e2e ede|"G"fed B2A|\
"D"dcd def|AFA d2e|"D"fed "G"BdB|"A"AFD ~E2D:|
P:Arr. O'Neill's
K:D
"D"DFG AFF|DFG ~F2E|DFG AFD|"A"FEE ~E2F|\
"D"DFd AFD|DFA d2e|"D"fdB "G"Bcd|"A"AFD ~E2D:|
|:"D"Ddd dAF|BAA A2A|"Em"Bee efg|"G"fdB ~B2A|\
"D"ABc def|DFA d2e|"D"fdB "G"Bcd|"A"AFD ~E2D:|
